X:452
T:Dundee City Police Pipe Band
C:Joe Buchanan's Scottish Tome - Page 074.0
I:074 0
R:Pipe March
Z:Carl Allison
L:1/8
M:6/8
K:Dmaj
A|"D"d>fe ({c}d2 A)|("G"B<d)A {c}B2 d|"D"A>BA A>af|f>ed ("A7"e2 A)|
"D"d>fe ({c}d2 A)|("G"B<d)A {c}B2 d|"D"A>af "A7"e>de| "D"{c}d3 d:|
g|"D"a>gf e>de|(fa>)A "G"{c}B2 d|"D"A>BA A>af|f>ed "A7"{f}(e2g) |
"D"a>gf e>de|(fa>)A "G"{c}B2 d|"D"A>af "A7"e>de|"D"{c}d3 dg |
"D"a>gf e>de|(fa>)A "G"{c}B2 d|"D"A>BA A>af|f>ed "A7"{f}e2 A  |
"D"d>fe ({c}d2 A)|(B<d)A {c}"G"B2 d|"D"A>af "A7"e>de| "D"{c}d3 d |]
"D"d>fe f>AA|(B<d)A {c}"G"(B2 d)|"D"A>af "A7"(f2 a)| f>ed "A7"{f}e3 A |
"D"d>fe f>AA|(B<d)A {c}"G"(B2 d)|"D"A>af "A7"e>de| "D"{c}d3 d |]
g | "D"f>aa A>aa | (f<a)A {c}B2 d | G>BB "D"A>dd | (f<a)f "A7"e2 g |
"D"f>aa Aa/a | f<aA "G"{c}B2 d | "D"A>af "A7"e>de |  {c}d3 "D"dg |
"D"f>aa A>aa | (f<a)A "G"{c}B2 d | G>BB "D"A>dd | (f<a)f "A7"e2 A |
"D"d>fe f>AA | d>fA "G"{c}(B2 d) | "D"A>af "A7"e>de |"D"{B}d {d}d |]
